packages/calcite-ui-icons/icons/layer-3d-16.svg

<?xml version="1.0" encoding="UTF-8"?><svg id="icons" xmlns="http://www.w3.org/2000/svg" viewBox="0 0 16 16"><defs><style>.cls-1{fill:none;}</style></defs><rect class="cls-1" width="16" height="16"/><path d="M10.70605,2.01428c.93286,0,1.77417.22888,2.26953.3985l1.72021,10.16315c-.67603-.21161-1.5144-.37592-2.48853-.37592-1.99658,0-3.28271.43329-4.52661.85229-1.14111.38452-2.21899.74768-3.88794.74768-1.17725,0-2.09424-.19427-2.66821-.36273L2.9353,2.73993c.62256.13379,1.45068.26007,2.35864.26007,1.5188,0,2.32935-.29346,3.04443-.55231.64258-.2326,1.19727-.43341,2.36768-.43341M10.70605,1.01428c-2.69092,0-2.72461.98572-5.41211.98572-1.73828,0-3.16113-.51172-3.16113-.51172L0,14.08905s1.42236.71094,3.79272.71094c3.66553,0,4.74902-1.59998,8.41455-1.59998,2.37036,0,3.79272,1.08905,3.79272,1.08905L13.86719,1.68829s-1.42285-.67401-3.16113-.67401h0ZM6.29297,4l-2.29297,2.29297v5.70703h5.70703l2.29297-2.29297V4h-5.70703ZM6.70703,5h3.58594l-1,1h-3.58594l1-1ZM9,10v1h-3.29297l1-1h.29297v-1h-1v.29297l-1,1v-3.29297h1v1h1v-1h2v2h-1v1h1ZM10,10.29297v-3.58594l1-1v3.58594l-1,1Z"/></svg>

<svg xmlns="http://www.w3.org/2000/svg" viewBox="0 0 16 16"><path d="M0 0h16v16H0z" style="fill:none"/><path d="M10.706 2.014c.933 0 1.774.23 2.27.399l1.72 10.163a8.3 8.3 0 0 0-2.489-.376c-1.996 0-3.282.433-4.526.852-1.141.385-2.22.748-3.888.748a9.5 9.5 0 0 1-2.669-.363L2.935 2.74c.623.134 1.451.26 2.359.26 1.519 0 2.33-.293 3.044-.552.643-.233 1.198-.434 2.368-.434m0-1c-2.69 0-2.725.986-5.412.986-1.738 0-3.161-.512-3.161-.512L0 14.09s1.422.711 3.793.711c3.665 0 4.749-1.6 8.414-1.6 2.37 0 3.793 1.09 3.793 1.09L13.867 1.687s-1.423-.674-3.16-.674M6.293 4 4 6.293V12h5.707L12 9.707V4zm.414 1h3.586l-1 1H5.707zM9 10v1H5.707l1-1H7V9H6v.293l-1 1V7h1v1h1V7h2v2H8v1zm1 .293V6.707l1-1v3.586z"/></svg>
